X:106
T:Reel 106
M:4/4
K:Dmaj
L:1/8
F|D2FA dAFA|AFdA FEED|D2FA dAFA|BGFG FDD:|d|dfdA dAFA|dfed cABc|dAFA BdAF|GBAG FDDE|dfed cAdc|BdAd BDAc|dcec dBAF|DFEG FDD|
